img/icons/filter.svg

<?xml version="1.0" encoding="UTF-8"?>
<svg width="30px" height="18px" viewBox="0 0 30 18" version="1.1" xmlns="http://www.w3.org/2000/svg" xmlns:xlink="http://www.w3.org/1999/xlink">
    <!-- Generator: Sketch 48.2 (47327) - http://www.bohemiancoding.com/sketch -->
    <title>filter icon</title>
    <desc>Created with Sketch.</desc>
    <defs></defs>
    <g id="job-listing" stroke="none" stroke-width="1" fill="none" fill-rule="evenodd" transform="translate(-297.000000, -844.000000)">
        <g id="Filter" transform="translate(297.000000, 844.000000)" fill="#000000">
            <path d="M1.5,0 L28.5,3.55271368e-15 C29.3284271,1.1931608e-15 30,0.671572875 30,1.5 C30,2.32842712 29.3284271,3 28.5,3 L1.5,3 C0.671572875,3 1.01453063e-16,2.32842712 0,1.5 C-1.01453063e-16,0.671572875 0.671572875,1.52179594e-16 1.5,0 Z M5.5,7.5 L24.5,7.5 C25.3284271,7.5 26,8.17157288 26,9 C26,9.82842712 25.3284271,10.5 24.5,10.5 L5.5,10.5 C4.67157288,10.5 4,9.82842712 4,9 C4,8.17157288 4.67157288,7.5 5.5,7.5 Z M11.5,15 L18.5,15 C19.3284271,15 20,15.6715729 20,16.5 C20,17.3284271 19.3284271,18 18.5,18 L11.5,18 C10.6715729,18 10,17.3284271 10,16.5 C10,15.6715729 10.6715729,15 11.5,15 Z" id="filter-icon"></path>
        </g>
    </g>
</svg>

<svg xmlns="http://www.w3.org/2000/svg" width="30" height="18" viewBox="0 0 30 18"><path fill-rule="evenodd" d="M1.5 0h27a1.5 1.5 0 0 1 0 3h-27a1.5 1.5 0 0 1 0-3zm4 7.5h19a1.5 1.5 0 0 1 0 3h-19a1.5 1.5 0 0 1 0-3zm6 7.5h7a1.5 1.5 0 0 1 0 3h-7a1.5 1.5 0 0 1 0-3z"/></svg>
